svg/pocketbase-dark.svg

<svg xmlns="http://www.w3.org/2000/svg" width="40" height="40" fill="none" viewBox="0 0 40 40"><rect width="1.715" height="16.734" x="25.536" y="13.486" fill="#212121" transform="rotate(45.9772 25.536 13.4861)"/><path fill="#212121" d="M26 14H36.8C37.4628 14 38 14.5373 38 15.2V36.8C38 37.4628 37.4628 38 36.8 38H15.2C14.5373 38 14 37.4628 14 36.8V26"/><path stroke="#f2f2f2" stroke-linecap="round" stroke-linejoin="round" stroke-width="2" d="M26 14H36.8C37.4628 14 38 14.5373 38 15.2V36.8C38 37.4628 37.4628 38 36.8 38H15.2C14.5373 38 14 37.4628 14 36.8V26" fill="#000000"/><path fill="#212121" d="M26 14V3.2C26 2.53726 25.4628 2 24.8 2H3.2C2.53726 2 2 2.53726 2 3.2V24.8C2 25.4628 2.53726 26 3.2 26H14"/><path stroke="#f2f2f2" stroke-linecap="round" stroke-linejoin="round" stroke-width="2" d="M26 14V3.2C26 2.53726 25.4628 2 24.8 2H3.2C2.53726 2 2 2.53726 2 3.2V24.8C2 25.4628 2.53726 26 3.2 26H14" fill="#000000"/><path fill="#f2f2f2" d="M10 20C9.44772 20 9 19.5523 9 19V8C9 7.44772 9.44772 7 10 7H13.7531C14.4801 7 15.1591 7.07311 15.7901 7.21932C16.4348 7.35225 16.9904 7.58487 17.4568 7.91718C17.9369 8.2362 18.3141 8.6682 18.5885 9.21319C18.8628 9.74489 19 10.4029 19 11.1871C19 11.9448 18.856 12.6028 18.5679 13.161C18.2936 13.7193 17.9163 14.1779 17.4362 14.5368C16.9561 14.8957 16.4005 15.1616 15.7695 15.3344C15.1385 15.5072 14.4664 15.5936 13.7531 15.5936H13.0247C12.4724 15.5936 12.0247 16.0413 12.0247 16.5936V19C12.0247 19.5523 11.577 20 11.0247 20H10ZM12.0247 12.2607C12.0247 12.813 12.4724 13.2607 13.0247 13.2607H13.5679C15.214 13.2607 16.037 12.5695 16.037 11.1871C16.037 10.5092 15.8244 10.0307 15.3992 9.75153C14.9877 9.47239 14.3772 9.33282 13.5679 9.33282H13.0247C12.4724 9.33282 12.0247 9.78054 12.0247 10.3328V12.2607Z"/><path fill="#f2f2f2" d="M22 33C21.4477 33 21 32.5523 21 32V21C21 20.4477 21.4477 20 22 20H25.4877C26.1844 20 26.8265 20.0532 27.4139 20.1595C28.015 20.2526 28.5342 20.4254 28.9713 20.6779C29.4085 20.9305 29.75 21.2628 29.9959 21.6748C30.2555 22.0869 30.3852 22.6053 30.3852 23.2301C30.3852 23.5225 30.3374 23.8149 30.2418 24.1074C30.1598 24.3998 30.0232 24.6723 29.832 24.9248C29.6407 25.1774 29.4016 25.4034 29.1148 25.6028C28.837 25.7958 28.5081 25.939 28.1279 26.0323C28.1058 26.0378 28.0902 26.0575 28.0902 26.0802V26.0802C28.0902 26.1039 28.1073 26.1242 28.1306 26.1286C29.0669 26.3034 29.7774 26.6332 30.2623 27.1181C30.7541 27.6099 31 28.2945 31 29.1718C31 29.8364 30.8702 30.408 30.6107 30.8865C30.3511 31.365 29.9891 31.7638 29.5246 32.0828C29.0601 32.3885 28.5137 32.6212 27.8852 32.7807C27.2705 32.9269 26.6011 33 25.8771 33H22ZM24.0123 24.2239C24.0123 24.7762 24.46 25.2239 25.0123 25.2239H25.3443C26.082 25.2239 26.6148 25.0844 26.9426 24.8052C27.2705 24.5261 27.4344 24.1339 27.4344 23.6288C27.4344 23.1503 27.2637 22.8113 26.9221 22.612C26.5943 22.3993 26.0751 22.2929 25.3648 22.2929H25.0123C24.46 22.2929 24.0123 22.7407 24.0123 23.2929V24.2239ZM24.0123 29.7071C24.0123 30.2593 24.46 30.7071 25.0123 30.7071H25.6311C27.2432 30.7071 28.0492 30.1222 28.0492 28.9525C28.0492 28.3809 27.8511 27.9688 27.4549 27.7163C27.0724 27.4637 26.4645 27.3374 25.6311 27.3374H25.0123C24.46 27.3374 24.0123 27.7851 24.0123 28.3374V29.7071Z"/></svg>

<svg xmlns="http://www.w3.org/2000/svg" width="40" height="40" fill="none"><path fill="#212121" d="m25.536 13.486 1.192 1.233-12.033 11.63-1.192-1.234z"/><path fill="#212121" d="M26 14h10.8a1.2 1.2 0 0 1 1.2 1.2v21.6a1.2 1.2 0 0 1-1.2 1.2H15.2a1.2 1.2 0 0 1-1.2-1.2V26"/><path fill="#000" stroke="#f2f2f2" stroke-linecap="round" stroke-linejoin="round" stroke-width="2" d="M26 14h10.8a1.2 1.2 0 0 1 1.2 1.2v21.6a1.2 1.2 0 0 1-1.2 1.2H15.2a1.2 1.2 0 0 1-1.2-1.2V26"/><path fill="#212121" d="M26 14V3.2A1.2 1.2 0 0 0 24.8 2H3.2A1.2 1.2 0 0 0 2 3.2v21.6A1.2 1.2 0 0 0 3.2 26H14"/><path fill="#000" stroke="#f2f2f2" stroke-linecap="round" stroke-linejoin="round" stroke-width="2" d="M26 14V3.2A1.2 1.2 0 0 0 24.8 2H3.2A1.2 1.2 0 0 0 2 3.2v21.6A1.2 1.2 0 0 0 3.2 26H14"/><path fill="#f2f2f2" d="M10 20a1 1 0 0 1-1-1V8a1 1 0 0 1 1-1h3.753a9 9 0 0 1 2.037.22q.967.199 1.667.697.72.48 1.131 1.296.412.798.412 1.974 0 1.137-.432 1.974a3.76 3.76 0 0 1-1.132 1.376 4.9 4.9 0 0 1-1.666.797 7.6 7.6 0 0 1-2.017.26h-.728a1 1 0 0 0-1 1V19a1 1 0 0 1-1 1zm2.025-7.74a1 1 0 0 0 1 1h.543q2.469 0 2.469-2.073 0-1.017-.638-1.435-.617-.42-1.831-.42h-.543a1 1 0 0 0-1 1zM22 33a1 1 0 0 1-1-1V21a1 1 0 0 1 1-1h3.488q1.044 0 1.926.16.902.139 1.557.518.657.378 1.025.997.39.618.39 1.555 0 .44-.144.877a2.4 2.4 0 0 1-.41.818q-.287.378-.717.678a2.9 2.9 0 0 1-.987.43.05.05 0 0 0-.038.047.05.05 0 0 0 .04.049q1.405.261 2.132.99.738.736.738 2.053 0 .996-.39 1.715a3.4 3.4 0 0 1-1.085 1.196 5.4 5.4 0 0 1-1.64.698 8.7 8.7 0 0 1-2.008.219zm2.012-8.776a1 1 0 0 0 1 1h.332q1.106 0 1.599-.419.49-.418.491-1.176 0-.719-.512-1.017-.492-.32-1.557-.32h-.353a1 1 0 0 0-1 1zm0 5.483a1 1 0 0 0 1 1h.62q2.417 0 2.417-1.755 0-.857-.594-1.236-.574-.379-1.824-.379h-.619a1 1 0 0 0-1 1z"/></svg>
